X:9
T:No.53 The March Of The Meena
C:march
L:1/8
M:4/4
K:D
A2BAe2ef|edBde2g2|G2GBd2de|dBGBd2e2|
A2Bde2ef|edBde2a2|gfed eaed|B2A2A2e2:|
a3ge2a2|edef g2a2|G2GBd2de|dBGBd2e2|
a3ge2a2|edefg2a2|gfed eaed|B2A2A2e2:|
A2AA eAAA|cAAAe2g2|G2GG dGGG|BAGBd2e2|
A2AA eAAA|cAAAe2a2|gfed eaed|B2A2A2e2:|
